devices/24/battery.svg

<?xml version="1.0" encoding="UTF-8" standalone="no"?>
<svg
   xmlns:dc="http://purl.org/dc/elements/1.1/"
   xmlns:cc="http://creativecommons.org/ns#"
   xmlns:rdf="http://www.w3.org/1999/02/22-rdf-syntax-ns#"
   xmlns:svg="http://www.w3.org/2000/svg"
   xmlns="http://www.w3.org/2000/svg"
   xmlns:xlink="http://www.w3.org/1999/xlink"
   version="1.0"
   width="24"
   height="24"
   id="svg2440">
  <metadata
     id="metadata62">
    <rdf:RDF>
      <cc:Work
         rdf:about="">
        <dc:format>image/svg+xml</dc:format>
        <dc:type
           rdf:resource="http://purl.org/dc/dcmitype/StillImage" />
      </cc:Work>
    </rdf:RDF>
  </metadata>
  <defs
     id="defs2442">
    <linearGradient
       id="linearGradient3844-9-5-84">
      <stop
         id="stop4693"
         style="stop-color:#a6a6a6;stop-opacity:1"
         offset="0" />
      <stop
         id="stop4695"
         style="stop-color:#e8e8e8;stop-opacity:1"
         offset="1" />
    </linearGradient>
    <linearGradient
       id="linearGradient3858-1-3-594">
      <stop
         id="stop4687"
         style="stop-color:#a0a0a0;stop-opacity:1"
         offset="0" />
      <stop
         id="stop4689"
         style="stop-color:#646464;stop-opacity:1"
         offset="1" />
    </linearGradient>
    <linearGradient
       id="linearGradient2793-2-0-669">
      <stop
         id="stop4681"
         style="stop-color:#878787;stop-opacity:1"
         offset="0" />
      <stop
         id="stop4683"
         style="stop-color:#d9d9d9;stop-opacity:1"
         offset="1" />
    </linearGradient>
    <linearGradient
       id="linearGradient4126-65-434-2-3-659">
      <stop
         id="stop4675"
         style="stop-color:#000000;stop-opacity:1"
         offset="0" />
      <stop
         id="stop4677"
         style="stop-color:#000000;stop-opacity:0"
         offset="1" />
    </linearGradient>
    <linearGradient
       id="linearGradient3254-8-457">
      <stop
         id="stop4669"
         style="stop-color:#ffffff;stop-opacity:1"
         offset="0" />
      <stop
         id="stop4671"
         style="stop-color:#ffffff;stop-opacity:0"
         offset="1" />
    </linearGradient>
    <linearGradient
       id="linearGradient3254-3-182">
      <stop
         id="stop4663"
         style="stop-color:#ffffff;stop-opacity:1"
         offset="0" />
      <stop
         id="stop4665"
         style="stop-color:#ffffff;stop-opacity:0"
         offset="1" />
    </linearGradient>
    <linearGradient
       id="linearGradient3355-273">
      <stop
         id="stop4657"
         style="stop-color:#e1e1e1;stop-opacity:1"
         offset="0" />
      <stop
         id="stop4659"
         style="stop-color:#a6a6a6;stop-opacity:1"
         offset="1" />
    </linearGradient>
    <linearGradient
       id="linearGradient3844-342">
      <stop
         id="stop4651"
         style="stop-color:#a6a6a6;stop-opacity:1"
         offset="0" />
      <stop
         id="stop4653"
         style="stop-color:#e8e8e8;stop-opacity:1"
         offset="1" />
    </linearGradient>
    <linearGradient
       id="linearGradient2793-2-0-403">
      <stop
         id="stop4645"
         style="stop-color:#878787;stop-opacity:1"
         offset="0" />
      <stop
         id="stop4647"
         style="stop-color:#d9d9d9;stop-opacity:1"
         offset="1" />
    </linearGradient>
    <linearGradient
       id="linearGradient3578-995-735-4-566-885-385-488-812-692-100-298-982-943">
      <stop
         id="stop4639"
         style="stop-color:#115984;stop-opacity:1"
         offset="0" />
      <stop
         id="stop4641"
         style="stop-color:#5498c5;stop-opacity:1"
         offset="1" />
    </linearGradient>
    <linearGradient
       id="linearGradient3280-373">
      <stop
         id="stop4633"
         style="stop-color:#000000;stop-opacity:1"
         offset="0" />
      <stop
         id="stop4635"
         style="stop-color:#000000;stop-opacity:0"
         offset="1" />
    </linearGradient>
    <linearGradient
       x1="23.5"
       y1="10.996204"
       x2="23.5"
       y2="39.850574"
       id="linearGradient2516"
       xlink:href="#linearGradient3254-8-457"
       gradientUnits="userSpaceOnUse"
       gradientTransform="matrix(0.4075989,0,0,0.6785656,2.4214149,-5.3033374)" />
    <linearGradient
       x1="12.25"
       y1="20.230709"
       x2="17.125"
       y2="34.173542"
       id="linearGradient2519"
       xlink:href="#linearGradient3254-3-182"
       gradientUnits="userSpaceOnUse"
       gradientTransform="matrix(0.4,0,0,0.6814085,2.7999998,-5.4692878)" />
    <linearGradient
       x1="17.242607"
       y1="11.001462"
       x2="17.242607"
       y2="2"
       id="linearGradient2522"
       xlink:href="#linearGradient3844-342"
       gradientUnits="userSpaceOnUse"
       gradientTransform="matrix(0.4403594,0,0,0.5010049,1.4359203,0.2434683)" />
    <linearGradient
       x1="23.999979"
       y1="9.3726854"
       x2="23.999979"
       y2="5.6033387"
       id="linearGradient2524"
       xlink:href="#linearGradient3355-273"
       gradientUnits="userSpaceOnUse"
       gradientTransform="matrix(0.4403594,0,0,0.5010049,1.4359203,0.2434683)" />
    <linearGradient
       x1="21.55463"
       y1="19.125"
       x2="12.894042"
       y2="19.125"
       id="linearGradient2528"
       xlink:href="#linearGradient2793-2-0-403"
       gradientUnits="userSpaceOnUse"
       gradientTransform="matrix(0.4583182,0,0,0.6637017,2.1461486,-5.4645623)"
       spreadMethod="reflect" />
    <linearGradient
       x1="21.51227"
       y1="28.375"
       x2="13.014573"
       y2="28.375"
       id="linearGradient2531"
       xlink:href="#linearGradient3578-995-735-4-566-885-385-488-812-692-100-298-982-943"
       gradientUnits="userSpaceOnUse"
       gradientTransform="matrix(0.4583292,0,0,0.5667032,2.1459219,-0.451626)"
       spreadMethod="reflect" />
    <radialGradient
       cx="21.34375"
       cy="14.125"
       r="11.96875"
       fx="21.34375"
       fy="14.125"
       id="radialGradient2534"
       xlink:href="#linearGradient3280-373"
       gradientUnits="userSpaceOnUse"
       gradientTransform="matrix(0.5848567,0,0,0.2506527,-0.483028,17.45953)" />
    <linearGradient
       x1="102.30806"
       y1="-2.3925467"
       x2="102.30806"
       y2="-24.582239"
       id="linearGradient2724"
       xlink:href="#linearGradient3844-9-5-84"
       gradientUnits="userSpaceOnUse"
       gradientTransform="matrix(0.09959249,0,0,0.04876598,1.6478907,1.6592329)"
       spreadMethod="reflect" />
    <linearGradient
       x1="109.95628"
       y1="-24.91135"
       x2="109.95628"
       y2="-2.3757858"
       id="linearGradient2726"
       xlink:href="#linearGradient3844-9-5-84"
       gradientUnits="userSpaceOnUse"
       gradientTransform="matrix(0.09959249,0,0,0.04876598,1.6478907,1.6592329)" />
    <linearGradient
       x1="103.95014"
       y1="-7.6656942"
       x2="89.423676"
       y2="-7.6656942"
       id="linearGradient2729"
       xlink:href="#linearGradient2793-2-0-669"
       gradientUnits="userSpaceOnUse"
       gradientTransform="matrix(0.09909102,0,0,0.09146798,1.6971541,4.7986665)"
       spreadMethod="reflect" />
    <linearGradient
       x1="89.01844"
       y1="22.536863"
       x2="89.01844"
       y2="27.54611"
       id="linearGradient2731"
       xlink:href="#linearGradient3858-1-3-594"
       gradientUnits="userSpaceOnUse"
       gradientTransform="matrix(0.2164343,0,0,0.2115915,-8.381213,-1.2227236)" />
    <radialGradient
       cx="23.857143"
       cy="40"
       r="17.142857"
       fx="23.857143"
       fy="40"
       id="radialGradient2734"
       xlink:href="#linearGradient4126-65-434-2-3-659"
       gradientUnits="userSpaceOnUse"
       gradientTransform="matrix(0.175,0,0,0.08147595,7.8250006,-1.0742239)" />
  </defs>
  <g
     id="layer1">
    <path
       d="M 19,20.999999 C 19,22.656854 15.865993,24 12,24 8.1340068,24 5.0000002,22.656854 5.0000002,20.999999 5.0000002,19.343145 8.1340068,18 12,18 c 3.865993,0 7,1.343145 7,2.999999 z"
       id="path3278"
       style="opacity:0.7;fill:url(#radialGradient2534);fill-opacity:1;fill-rule:nonzero;stroke:none;stroke-width:1;marker:none;visibility:visible;display:inline;overflow:visible" />
    <path
       d="M 11.312506,5.4987585 C 8.6010392,5.6214601 6.5000498,6.4714819 6.5000498,7.4822198 l 0,13.0341742 c 0,1.094872 2.4639772,1.983463 5.4999502,1.983463 3.035972,0 5.49995,-0.888591 5.49995,-1.983463 l 0,-13.0341742 c 0,-1.0948719 -2.463977,-1.9834613 -5.49995,-1.9834613 -0.16603,0 -0.324676,-0.00521 -0.486975,0 -0.06575,0.0021 -0.135444,-0.00295 -0.200519,0 l 0,0 z"
       id="path2230"
       style="fill:url(#linearGradient2531);fill-opacity:1;fill-rule:nonzero;stroke:#2b719c;stroke-width:1;stroke-opacity:1;marker:none;visibility:visible;display:inline;overflow:visible" />
    <path
       d="M 11.513028,1.5043061 C 8.7076415,1.6096467 6.500173,2.6151136 6.500173,3.8272619 l 0,4.3140614 c 0,1.2822727 2.4639178,2.3229567 5.499817,2.3229557 3.035901,0 5.49982,-1.040683 5.49982,-2.3229557 l 0,-4.3140614 c 0,-1.282273 -2.463919,-2.3229558 -5.49982,-2.3229558 -0.166025,0 -0.324667,-0.00611 -0.486962,0 l 0,0 z"
       id="path2232"
       style="fill:url(#linearGradient2528);fill-opacity:1;fill-rule:nonzero;stroke:none;stroke-width:1;marker:none;visibility:visible;display:inline;overflow:visible" />
    <path
       d="m 6.5001714,3.7848197 0,4.8869214 m 10.9996366,0 0,-4.8869214"
       id="path2219"
       style="fill:none;stroke:#9f9f9f;stroke-width:1;stroke-linecap:butt;stroke-linejoin:round;stroke-miterlimit:4;stroke-opacity:1;stroke-dasharray:none;stroke-dashoffset:0;marker:none;visibility:visible;display:inline;overflow:visible" />
    <path
       d="m 17.512591,3.5000001 c 0,1.1090183 -2.46604,2.0080551 -5.508055,2.0080551 -3.0420151,0 -5.5080556,-0.8990368 -5.5080556,-2.0080551 0,-1.1090185 2.4660405,-2.0080553 5.5080556,-2.0080553 3.042015,0 5.508055,0.8990368 5.508055,2.0080553 l 0,0 z"
       id="path3164"
       style="fill:url(#linearGradient2522);fill-opacity:1;fill-rule:nonzero;stroke:url(#linearGradient2524);stroke-width:0.98388958;stroke-linecap:round;stroke-linejoin:round;stroke-miterlimit:4;stroke-opacity:1;stroke-dasharray:none;stroke-dashoffset:0;marker:none;visibility:visible;display:inline;overflow:visible" />
    <path
       d="M 8,5 10,5.4332503 10,22 8,21.446354 8,5 8,5 z"
       id="rect3244"
       style="opacity:0.2;fill:url(#linearGradient2519);fill-opacity:1;fill-rule:nonzero;stroke:none;stroke-width:1;marker:none;visibility:visible;display:inline;overflow:visible" />
    <path
       d="m 7.4999996,4.0031678 c 0,0.7754731 0,15.0236102 0,15.8004202 0,0.93642 2.0250482,1.696413 4.4999924,1.696413 2.474943,0 4.500007,-0.759993 4.500007,-1.696413 0,-0.718747 0,-15.0816727 0,-15.8004202 0,-0.7823671 -2.026387,-1.5158754 -4.500007,-1.503001 -2.473621,0.012874 -4.4999924,0.7242295 -4.4999924,1.503001 z"
       id="path2206"
       style="opacity:0.15;fill:none;stroke:url(#linearGradient2516);stroke-width:0.99999982;stroke-linecap:round;stroke-linejoin:round;stroke-miterlimit:4;stroke-opacity:1;stroke-dasharray:none;stroke-dashoffset:0;marker:none;visibility:visible;display:inline;overflow:visible" />
    <path
       d="m 15,2.1848151 c 0,0.7713932 -1.343146,1.3967309 -3,1.3967309 -1.656854,0 -2.9999999,-0.6253377 -2.9999999,-1.3967309 0,-0.7713932 1.3431459,-1.39673098 2.9999999,-1.39673098 1.656854,0 3,0.62533778 3,1.39673098 l 0,0 z"
       id="path9139"
       style="opacity:0.2;fill:url(#radialGradient2734);fill-opacity:1;fill-rule:nonzero;stroke:none;stroke-width:2.47287893;marker:none;visibility:visible;display:block;overflow:visible" />
    <path
       d="m 14.484549,3.5621743 c 0,0.5176803 -1.11436,0.937826 -2.487409,0.937826 -1.373052,0 -2.4874128,-0.4201457 -2.4874128,-0.937826 0,-2.5232163 -0.3040295,-3.04205765 2.4874128,-3.06158072 2.85537,-0.0201503 2.487409,0.46220226 2.487409,3.06158072 z"
       id="path3878"
       style="fill:url(#linearGradient2729);fill-opacity:1;stroke:url(#linearGradient2731);stroke-width:0.99999982;stroke-miterlimit:4;stroke-opacity:1;stroke-dasharray:none" />
    <path
       d="m 14.5,0.99999983 c 0,0.27614247 -1.119288,0.50000047 -2.499999,0.50000047 -1.380713,0 -2.5000011,-0.223858 -2.5000011,-0.50000047 0,-0.27614185 1.1192881,-0.49999989 2.5000011,-0.49999989 1.380711,0 2.499999,0.22385804 2.499999,0.49999989 l 0,0 z"
       id="path3880"
       style="fill:url(#linearGradient2724);fill-opacity:1;stroke:url(#linearGradient2726);stroke-width:0.9999997;stroke-miterlimit:4;stroke-opacity:1;stroke-dasharray:none" />
  </g>
</svg>

<svg xmlns="http://www.w3.org/2000/svg" xmlns:xlink="http://www.w3.org/1999/xlink" viewBox="0 0 24 24"><defs><linearGradient id="h"><stop offset="0" stop-color="#a6a6a6"/><stop offset="1" stop-color="#e8e8e8"/></linearGradient><linearGradient id="j"><stop offset="0" stop-color="#a0a0a0"/><stop offset="1" stop-color="#646464"/></linearGradient><linearGradient id="i"><stop offset="0" stop-color="#878787"/><stop offset="1" stop-color="#d9d9d9"/></linearGradient><linearGradient id="k"><stop offset="0"/><stop offset="1" stop-opacity="0"/></linearGradient><linearGradient id="a"><stop offset="0" stop-color="#fff"/><stop offset="1" stop-color="#fff" stop-opacity="0"/></linearGradient><linearGradient id="b"><stop offset="0" stop-color="#fff"/><stop offset="1" stop-color="#fff" stop-opacity="0"/></linearGradient><linearGradient id="d"><stop offset="0" stop-color="#e1e1e1"/><stop offset="1" stop-color="#a6a6a6"/></linearGradient><linearGradient id="c"><stop offset="0" stop-color="#a6a6a6"/><stop offset="1" stop-color="#e8e8e8"/></linearGradient><linearGradient id="e"><stop offset="0" stop-color="#878787"/><stop offset="1" stop-color="#d9d9d9"/></linearGradient><linearGradient id="f"><stop offset="0" stop-color="#115984"/><stop offset="1" stop-color="#5498c5"/></linearGradient><linearGradient id="g"><stop offset="0"/><stop offset="1" stop-opacity="0"/></linearGradient><linearGradient x1="23.5" y1="10.996" x2="23.5" y2="39.851" id="r" xlink:href="#a" gradientUnits="userSpaceOnUse" gradientTransform="matrix(.4076 0 0 .67857 2.42 -5.303)"/><linearGradient x1="12.25" y1="20.231" x2="17.125" y2="34.174" id="q" xlink:href="#b" gradientUnits="userSpaceOnUse" gradientTransform="matrix(.4 0 0 .6814 2.8 -5.47)"/><linearGradient x1="17.243" y1="11.001" x2="17.243" y2="2" id="o" xlink:href="#c" gradientUnits="userSpaceOnUse" gradientTransform="matrix(.44036 0 0 .501 1.436 .243)"/><linearGradient x1="24" y1="9.373" x2="24" y2="5.603" id="p" xlink:href="#d" gradientUnits="userSpaceOnUse" gradientTransform="matrix(.44036 0 0 .501 1.436 .243)"/><linearGradient x1="21.555" y1="19.125" x2="12.894" y2="19.125" id="n" xlink:href="#e" gradientUnits="userSpaceOnUse" gradientTransform="matrix(.45832 0 0 .6637 2.146 -5.465)" spreadMethod="reflect"/><linearGradient x1="21.512" y1="28.375" x2="13.015" y2="28.375" id="m" xlink:href="#f" gradientUnits="userSpaceOnUse" gradientTransform="matrix(.45833 0 0 .5667 2.146 -.452)" spreadMethod="reflect"/><radialGradient cx="21.344" cy="14.125" r="11.969" fx="21.344" fy="14.125" id="l" xlink:href="#g" gradientUnits="userSpaceOnUse" gradientTransform="matrix(.58486 0 0 .25065 -.483 17.46)"/><linearGradient x1="102.308" y1="-2.393" x2="102.308" y2="-24.582" id="v" xlink:href="#h" gradientUnits="userSpaceOnUse" gradientTransform="matrix(.0996 0 0 .04877 1.648 1.66)" spreadMethod="reflect"/><linearGradient x1="109.956" y1="-24.911" x2="109.956" y2="-2.376" id="w" xlink:href="#h" gradientUnits="userSpaceOnUse" gradientTransform="matrix(.0996 0 0 .04877 1.648 1.66)"/><linearGradient x1="103.95" y1="-7.666" x2="89.424" y2="-7.666" id="t" xlink:href="#i" gradientUnits="userSpaceOnUse" gradientTransform="matrix(.0991 0 0 .09147 1.697 4.8)" spreadMethod="reflect"/><linearGradient x1="89.018" y1="22.537" x2="89.018" y2="27.546" id="u" xlink:href="#j" gradientUnits="userSpaceOnUse" gradientTransform="matrix(.21643 0 0 .2116 -8.38 -1.223)"/><radialGradient cx="23.857" cy="40" r="17.143" fx="23.857" fy="40" id="s" xlink:href="#k" gradientUnits="userSpaceOnUse" gradientTransform="matrix(.175 0 0 .08148 7.825 -1.074)"/></defs><path d="M19 21c0 1.657-3.134 3-7 3s-7-1.343-7-3 3.134-3 7-3 7 1.343 7 3z" opacity=".7" fill="url(#l)" overflow="visible"/><path d="M11.313 5.5C8.6 5.62 6.5 6.47 6.5 7.48v13.034C6.5 21.61 8.964 22.5 12 22.5s5.5-.89 5.5-1.984V7.482C17.5 6.387 15.036 5.5 12 5.5c-.166 0-.325-.006-.487 0-.066 0-.135-.004-.2 0z" fill="url(#m)" stroke="#2b719c" overflow="visible"/><path d="M11.513 1.504C8.708 1.61 6.5 2.614 6.5 3.827V8.14c0 1.284 2.464 2.324 5.5 2.324s5.5-1.04 5.5-2.323V3.83c0-1.282-2.464-2.323-5.5-2.323-.166 0-.325-.006-.487 0z" fill="url(#n)" overflow="visible"/><path d="M6.5 3.785v4.887m11 0V3.785" fill="none" stroke="#9f9f9f" stroke-linejoin="round" overflow="visible"/><path d="M17.513 3.5c0 1.11-2.466 2.008-5.508 2.008s-5.51-.9-5.51-2.008c0-1.11 2.468-2.008 5.51-2.008s5.508.9 5.508 2.008z" fill="url(#o)" stroke="url(#p)" stroke-width=".984" stroke-linecap="round" stroke-linejoin="round" overflow="visible"/><path d="M8 5l2 .433V22l-2-.554V5z" opacity=".2" fill="url(#q)" overflow="visible"/><path d="M7.5 4.003v15.8c0 .937 2.025 1.697 4.5 1.697s4.5-.76 4.5-1.696v-15.8c0-.783-2.026-1.517-4.5-1.504-2.474.013-4.5.724-4.5 1.503z" opacity=".15" fill="none" stroke="url(#r)" stroke-linecap="round" stroke-linejoin="round" overflow="visible"/><path d="M15 2.185c0 .77-1.343 1.397-3 1.397s-3-.626-3-1.397c0-.772 1.343-1.397 3-1.397s3 .625 3 1.397z" opacity=".2" fill="url(#s)" display="block" overflow="visible"/><path d="M14.485 3.562c0 .518-1.115.938-2.488.938S9.51 4.08 9.51 3.562c0-2.523-.304-3.042 2.487-3.06 2.856-.022 2.488.46 2.488 3.06z" fill="url(#t)" stroke="url(#u)"/><path d="M14.5 1c0 .276-1.12.5-2.5.5S9.5 1.276 9.5 1 10.62.5 12 .5s2.5.224 2.5.5z" fill="url(#v)" stroke="url(#w)"/></svg>
